X: 6
M:6/8
L:1/8
K:D
"NO. I"
fdB AFA|BGB AFA|fdB AFA|B2 c d2 e|
fdB AFA|BGB AFA|fdB AFA|B2 c d2 e||
f2 a e2 f|dcd A2 g|f2 a e2 f|gfg a3|
bbb aaa|gfg ede|fdB AFA|B2 c d2 e||
K:G
"NO. II"
e|fef afe|dBc d2 e|fgf ede|fdA Bde|
fef afe|dBc d2 e|fgf ede|fdA BAG||
"NO. III"
E2 B BAG|F2 d AFD|E2 B BGB|AGF e2 f|
gfe dcB|AFd AFD|E2 B BGB|AGF E3||
eBe gab|aga faf|eBe gbg|afd e2 f|
gfe dcB|AFd AFD|E2 B BGB|AGF E3||
"NO. IV"
afd dcd|edc BAB|dBG GFG|AcB A2 c|

